X: 1
T: Maid Behind the Bar
T:Little Judy's Reel
M: C|
R: reel
K: D
E|"D"FAAB AFED| FAAB ABde| "Bm"fBBA Bcde| "G"fdgf "A7"edcA|
"D"FAAB AFED| FAAB ABde| "G"fBBA BcdB| "A7"AFEF "D"D3 :|
|:g|"D"faag fdde| fdag fddf| "Em"efga beef| "A7"gebe gfeg|
"D"faaf bfaf| defd e2de| "G"fBBA BcdB| "A"AFEF "D"D3 :|
